X:171
T:Oyster girl
R:Jig
M:6/8
L:1/8
K:G
B|ded B2G|A2F D2D|G2G BGB|d2c A3|
 |ded B2g|f2e c2e|ded cBA|1 G3 G2 B:|2 G3 G2 A|
 |:Bcd Bcd|e2c e2c|ABc ABc|d2B d2B|
 |ded B2g|f2e c2e|ded cAF|1 G3 G2 A:|2 G3 G3 B|
